svgs/regular/diagram-lean-canvas.svg

<svg xmlns="http://www.w3.org/2000/svg" viewBox="0 0 640 512"><!--! Font Awesome Pro 6.6.0 by @fontawesome - https://fontawesome.com License - https://fontawesome.com/license (Commercial License) Copyright 2024 Fonticons, Inc. --><path d="M512 80l0 216 80 0 0-200c0-8.8-7.2-16-16-16l-64 0zm-48 0l-64 0 0 88 64 0 0-88zM352 80l-64 0 0 216 64 0 0-216zM240 80l-64 0 0 88 64 0 0-88zM128 80L64 80c-8.8 0-16 7.2-16 16l0 200 80 0 0-216zM48 344l0 72c0 8.8 7.2 16 16 16l232 0 0-88L48 344zm296 88l232 0c8.8 0 16-7.2 16-16l0-72-248 0 0 88zM0 96C0 60.7 28.7 32 64 32l512 0c35.3 0 64 28.7 64 64l0 320c0 35.3-28.7 64-64 64L64 480c-35.3 0-64-28.7-64-64L0 96zM240 296l0-80-64 0 0 80 64 0zm224-80l-64 0 0 80 64 0 0-80z"/></svg>

<svg xmlns="http://www.w3.org/2000/svg" viewBox="0 0 640 512"><!--! Font Awesome Pro 6.4.2 by @fontawesome - https://fontawesome.com License - https://fontawesome.com/license (Commercial License) Copyright 2023 Fonticons, Inc. --><path d="M512 80V296h80V96c0-8.8-7.2-16-16-16H512zm-48 0H400v88h64V80zM352 80H288V296h64V80zM240 80H176v88h64V80zM128 80H64c-8.8 0-16 7.2-16 16V296h80V80zM48 344v72c0 8.8 7.2 16 16 16H296V344H48zm296 88H576c8.8 0 16-7.2 16-16V344H344v88zM0 96C0 60.7 28.7 32 64 32H576c35.3 0 64 28.7 64 64V416c0 35.3-28.7 64-64 64H64c-35.3 0-64-28.7-64-64V96zM240 296V216H176v80h64zm224-80H400v80h64V216z"/></svg>
